assets/img/icons/mask.svg

<svg width="25" height="25" viewBox="0 0 25 25" fill="none" xmlns="http://www.w3.org/2000/svg">
<g clip-path="url(#clip0_364_4030)">
<path d="M23.0999 0.957212C21.8915 0.0509618 20.3665 -0.227163 18.9176 0.190545L9.67175 2.86659C9.23425 2.99367 8.77696 3.08117 8.31654 3.127C7.26238 3.22909 5.35821 3.53742 4.44779 4.44784C3.53738 5.35825 3.23113 7.26034 3.12696 8.31346C3.08113 8.77492 2.99467 9.23117 2.86758 9.66971L0.191543 18.9155C-0.228249 20.3666 0.0509178 21.8916 0.959251 23.0999C1.86758 24.3083 3.25404 24.9999 4.76446 24.9999H11.4436C11.6311 24.9999 16.0978 24.9489 20.5238 20.5228C24.9499 16.0968 25.0009 11.6301 25.0009 11.4416V4.76242C25.0009 3.252 24.3082 1.8645 23.1009 0.95617L23.0999 0.957212ZM19.4967 2.19471C19.7457 2.12284 19.9978 2.08638 20.2478 2.08638C20.8176 2.08638 21.3749 2.27075 21.8468 2.62492C22.5259 3.1343 22.9145 3.9145 22.9145 4.76242V9.96659L16.1186 3.17075L19.4967 2.19367V2.19471ZM2.62592 21.8468C2.11654 21.1676 1.95925 20.3114 2.19467 19.4958L3.17279 16.1176L9.96863 22.9135H4.76446C3.91654 22.9135 3.13738 22.5249 2.62696 21.8458L2.62592 21.8468ZM15.7468 9.32492L9.32592 15.7468L7.85092 14.2718L14.2718 7.84992L15.7468 9.32492ZM17.2218 10.801L18.6968 12.276L12.2759 18.6968L10.8009 17.2218L17.2218 10.801Z" fill="#BF1F1F"/>
</g>
<defs>
<clipPath id="clip0_364_4030">
<rect width="25" height="25" fill="white"/>
</clipPath>
</defs>
</svg>

<svg width="25" height="25" fill="none" xmlns="http://www.w3.org/2000/svg"><g clip-path="url(#a)"><path d="M23.1.957a4.73 4.73 0 0 0-4.182-.766L9.672 2.867a7.562 7.562 0 0 1-1.355.26c-1.055.102-2.959.41-3.87 1.32-.91.911-1.216 2.813-1.32 3.866a7.571 7.571 0 0 1-.26 1.357L.193 18.916A4.721 4.721 0 0 0 .959 23.1 4.72 4.72 0 0 0 4.764 25h6.68c.187 0 4.654-.051 9.08-4.477S25 11.63 25 11.442v-6.68c0-1.51-.693-2.897-1.9-3.806v.001Zm-3.603 1.238a2.655 2.655 0 0 1 2.35.43 2.65 2.65 0 0 1 1.067 2.137v5.205L16.12 3.17l3.378-.977ZM2.626 21.847a2.657 2.657 0 0 1-.431-2.351l.978-3.378 6.796 6.796H4.764a2.652 2.652 0 0 1-2.137-1.068h-.001Zm13.12-12.522-6.42 6.422-1.475-1.475 6.42-6.422 1.476 1.475Zm1.476 1.476 1.475 1.475-6.421 6.42-1.475-1.474 6.42-6.421Z" fill="#BF1F1F"/></g><defs><clipPath id="a"><path fill="#fff" d="M0 0h25v25H0z"/></clipPath></defs></svg>
